X: 1
T: Imelda Roland's
M: 4/4
L: 1/8
Z: S.H.
R: reel
K: Edor
B2 GA BGdB |AD (3FED AD (3FED |GFEF ~G3 A|BABd egfe |
d2 ce dBAG |(3FED AD BDAD |G2 EF GFGA |(3Bcd A=c BE E2 :|
e2 ed efga |be (3gfe bege |d2 dc defg |ad(3fed adfd |
e2 ef edBc |dcdB AFDF |GFEF ~G3 A |B2 A=c BE E2:|
